X: 30693
T: MARYLAND HORNPIPE
C:
%R: hornpipe, reel
B: Elias Howe "The Musician's Companion" Part 3 1844 p.69 #3
S: http://imslp.org/wiki/The_Musician's_Companion_(Howe,_Elias)
Z: 2015 John Chambers <jc:trillian.mit.edu>
M: 2/4
L: 1/16
K: G
% - - - - - - - - - - - - - - - - - - - - - - - - -
(dc) |\
BGdB gdBd | cAag fedc | BGdB gdBd | cBAG DFAc |\
BGdB gdBd | cAag fedc | Bgfg ecAF | G2[B2G2]G2 :|
|: Bc |\
dcBA GBdg | e2c2c2e2 | dcBc cfag | f2d2d2c2 |\
BGdG BGdG | AFDF AFcA | Bgfg ecAF | G2[B2G2]G2 :|
% - - - - - - - - - - - - - - - - - - - - - - - - -
